Flat-Remix-Dark/devices/scalable/touchpad-disabled.svg

<svg xmlns="http://www.w3.org/2000/svg" xmlns:xlink="http://www.w3.org/1999/xlink" width="384pt" height="384pt" version="1.1" viewBox="0 0 384 384">
 <defs>
  <filter id="alpha" width="100%" height="100%" x="0%" y="0%" filterUnits="objectBoundingBox">
   <feColorMatrix in="SourceGraphic" type="matrix" values="0 0 0 0 1 0 0 0 0 1 0 0 0 0 1 0 0 0 1 0"/>
  </filter>
  <mask id="mask0">
   <g filter="url(#alpha)">
    <rect width="384" height="384" x="0" y="0" style="fill:rgb(0%,0%,0%);fill-opacity:0.301961"/>
   </g>
  </mask>
  <clipPath id="clip1">
   <rect width="384" height="384" x="0" y="0"/>
  </clipPath>
  <g id="surface5" clip-path="url(#clip1)">
   <path style="fill:rgb(4.313725%,4.313725%,4.313725%)" d="M 360.75 347.769531 L 360.75 42.722656 C 360.75 33.761719 353.484375 26.496094 344.523438 26.496094 L 39.476562 26.496094 C 30.515625 26.496094 23.25 33.761719 23.25 42.722656 L 23.25 347.769531 C 23.25 356.734375 30.515625 363.996094 39.476562 363.996094 L 344.523438 363.996094 C 353.484375 363.996094 360.75 356.734375 360.75 347.769531 Z M 360.75 347.769531"/>
  </g>
  <mask id="mask2">
   <g filter="url(#alpha)">
    <rect width="384" height="384" x="0" y="0" style="fill:rgb(0%,0%,0%);fill-opacity:0.101961"/>
   </g>
  </mask>
  <clipPath id="clip3">
   <rect width="384" height="384" x="0" y="0"/>
  </clipPath>
  <g id="surface11" clip-path="url(#clip3)">
   <path style="fill:rgb(100%,100%,100%)" d="M 39.476562 20.003906 C 30.488281 20.003906 23.25 27.242188 23.25 36.230469 L 23.25 42.722656 C 23.25 33.730469 30.488281 26.496094 39.476562 26.496094 L 344.523438 26.496094 C 353.511719 26.496094 360.75 33.730469 360.75 42.722656 L 360.75 36.230469 C 360.75 27.242188 353.511719 20.003906 344.523438 20.003906 Z M 39.476562 20.003906"/>
  </g>
  <filter id="alpha-3" width="100%" height="100%" x="0%" y="0%" filterUnits="objectBoundingBox">
   <feColorMatrix in="SourceGraphic" type="matrix" values="0 0 0 0 1 0 0 0 0 1 0 0 0 0 1 0 0 0 1 0"/>
  </filter>
  <mask id="mask0-6">
   <g filter="url(#alpha)" style="filter:url(#alpha-3)">
    <rect width="384" height="384" x="0" y="0" style="fill:rgb(0%,0%,0%);fill-opacity:0.301961"/>
   </g>
  </mask>
  <clipPath id="clip1-7">
   <rect width="384" height="384" x="0" y="0"/>
  </clipPath>
  <g id="surface5-5" clip-path="url(#clip1-7)">
   <path style="fill:rgb(0%,0%,0%);stroke:rgb(0%,0%,0%)" d="M 269.403242 218.122311 L 269.403242 229.000864 L 280.281795 229.000864 L 280.28258 232.321115 L 269.404027 232.321115 L 269.403242 243.200452 L 266.122247 243.199667 L 266.122247 232.321115 L 255.243694 232.321115 L 255.242909 229.000864 L 266.121462 229.000864 L 266.122247 218.121526 Z M 269.403242 218.122311" transform="matrix(2.487693,2.487693,-2.487693,2.487693,99.70222,-1048.192859)"/>
  </g>
 </defs>
 <use width="100%" height="100%" x="0" y="0" mask="url(#mask0)" xlink:href="#surface5" style="stroke:#111111;stroke-width:7.5"/>
 <path d="M 360.75,341.27734 V 36.230469 c 0,-8.964844 -7.26563,-16.226563 -16.22656,-16.226563 H 39.476562 C 30.515625,20.003906 23.25,27.265625 23.25,36.230469 V 341.27734 c 0,8.96094 7.265625,16.22657 16.226562,16.22657 H 344.52344 c 8.96093,0 16.22656,-7.26563 16.22656,-16.22657 z m 0,0" style="fill:#ffffff;stroke:#111111;stroke-width:7.5"/>
 <use width="100%" height="100%" x="0" y="0" mask="url(#mask2)" xlink:href="#surface11" style="stroke:#111111;stroke-width:7.5"/>
 <g>
  <rect width="52.934" height="13.992" x="295.34" y="71.42"/>
  <rect width="52.934" height="13.992" x="295.34" y="96.88"/>
  <rect width="52.934" height="13.992" x="295.34" y="122.84"/>
  <rect width="52.934" height="13.992" x="295.34" y="149.81"/>
  <rect width="52.934" height="13.992" x="295.34" y="174.76"/>
  <rect width="52.934" height="13.992" x="295.34" y="201.73"/>
 </g>
 <rect width="144.161" height="78.308" x="35.44" y="266.28" rx="16.188" ry="16.658"/>
 <rect width="144.161" height="78.308" x="204.4" y="266.28" rx="16.188" ry="16.658"/>
 <g transform="translate(3.798785e-6,-34.928967)">
  <use width="100%" height="100%" x="0" y="0" mask="url(#mask0-6)" xlink:href="#surface5-5"/>
  <path style="stroke:#000000" d="m 269.40313,218.1222 v 10.87855 h 10.87855 l 7.8e-4,3.32025 h -10.87855 l -7.8e-4,10.87934 -3.281,-7.9e-4 V 232.321 h -10.87855 l -7.9e-4,-3.32025 h 10.87856 l 7.8e-4,-10.87934 z m 0,0" transform="matrix(2.487693,2.487693,-2.487693,2.487693,99.70222,-1056.6571)"/>
 </g>
</svg>

<svg xmlns="http://www.w3.org/2000/svg" xmlns:xlink="http://www.w3.org/1999/xlink" width="384pt" height="384pt" version="1.1" viewBox="0 0 384 384">
 <defs>
  <filter id="alpha" width="100%" height="100%" x="0%" y="0%" filterUnits="objectBoundingBox">
   <feColorMatrix in="SourceGraphic" type="matrix" values="0 0 0 0 1 0 0 0 0 1 0 0 0 0 1 0 0 0 1 0"/>
  </filter>
  <mask id="mask0">
   <g filter="url(#alpha)">
    <rect style="fill:rgb(0%,0%,0%);fill-opacity:0.301961" width="384" height="384" x="0" y="0"/>
   </g>
  </mask>
  <clipPath id="clip1">
   <rect width="384" height="384" x="0" y="0"/>
  </clipPath>
  <g id="surface5" clip-path="url(#clip1)">
   <path d="M 360.75 347.769531 L 360.75 42.722656 C 360.75 33.761719 353.484375 26.496094 344.523438 26.496094 L 39.476562 26.496094 C 30.515625 26.496094 23.25 33.761719 23.25 42.722656 L 23.25 347.769531 C 23.25 356.734375 30.515625 363.996094 39.476562 363.996094 L 344.523438 363.996094 C 353.484375 363.996094 360.75 356.734375 360.75 347.769531 Z M 360.75 347.769531" style="fill:rgb(4.313725%,4.313725%,4.313725%)"/>
  </g>
  <mask id="mask2">
   <g filter="url(#alpha)">
    <rect style="fill:rgb(0%,0%,0%);fill-opacity:0.101961" width="384" height="384" x="0" y="0"/>
   </g>
  </mask>
  <clipPath id="clip3">
   <rect width="384" height="384" x="0" y="0"/>
  </clipPath>
  <g id="surface11" clip-path="url(#clip3)">
   <path d="M 39.476562 20.003906 C 30.488281 20.003906 23.25 27.242188 23.25 36.230469 L 23.25 42.722656 C 23.25 33.730469 30.488281 26.496094 39.476562 26.496094 L 344.523438 26.496094 C 353.511719 26.496094 360.75 33.730469 360.75 42.722656 L 360.75 36.230469 C 360.75 27.242188 353.511719 20.003906 344.523438 20.003906 Z M 39.476562 20.003906" style="fill:rgb(100%,100%,100%)"/>
  </g>
  <clipPath id="clip1-5">
   <rect width="384" height="384" x="0" y="0"/>
  </clipPath>
  <g id="surface9" clip-path="url(#clip1-5)">
   <path style="fill:rgb(0%,0%,0%);stroke:rgb(0%,0%,0%)" d="M 269.403376 218.121756 L 269.403376 228.99958 L 280.282676 229.001056 L 280.282676 232.320816 L 269.403376 232.322292 L 269.403376 243.200116 L 266.122012 243.200116 L 266.122012 232.322292 L 255.242712 232.320816 L 255.242712 229.001056 L 266.122012 228.99958 L 266.122012 218.121756 Z M 269.403376 218.121756" transform="matrix(1.322573,1.322573,-1.322573,1.322573,142.930207,-462.70176)"/>
  </g>
  <mask id="mask1-7-0">
   <g style="filter:url(#alpha-3-6)">
    <rect width="384" height="384" x="0" y="0" style="fill-opacity:0.30196102"/>
   </g>
  </mask>
  <filter id="alpha-3-6" width="1" height="1" x="0" y="0" filterUnits="objectBoundingBox">
   <feColorMatrix in="SourceGraphic" type="matrix" values="0 0 0 0 1 0 0 0 0 1 0 0 0 0 1 0 0 0 1 0"/>
  </filter>
 </defs>
 <use style="stroke:#111111;stroke-width:7.5" width="100%" height="100%" x="0" y="0" mask="url(#mask0)" xlink:href="#surface5"/>
 <path style="fill:#ffffff;stroke:#111111;stroke-width:7.5" d="M 360.75,341.27734 V 36.230469 c 0,-8.964844 -7.26563,-16.226563 -16.22656,-16.226563 H 39.476562 C 30.515625,20.003906 23.25,27.265625 23.25,36.230469 V 341.27734 c 0,8.96094 7.265625,16.22657 16.226562,16.22657 H 344.52344 c 8.96093,0 16.22656,-7.26563 16.22656,-16.22657 z m 0,0"/>
 <use style="stroke:#111111;stroke-width:7.5" width="100%" height="100%" x="0" y="0" mask="url(#mask2)" xlink:href="#surface11"/>
 <g style="fill:none;stroke:#111111;stroke-width:7.5">
  <rect width="52.934" height="13.992" x="295.34" y="71.42" style="fill:none;stroke:#111111;stroke-width:7.5"/>
  <rect width="52.934" height="13.992" x="295.34" y="96.88" style="fill:none;stroke:#111111;stroke-width:7.5"/>
  <rect width="52.934" height="13.992" x="295.34" y="122.84" style="fill:none;stroke:#111111;stroke-width:7.5"/>
  <rect width="52.934" height="13.992" x="295.34" y="149.81" style="fill:none;stroke:#111111;stroke-width:7.5"/>
  <rect width="52.934" height="13.992" x="295.34" y="174.76" style="fill:none;stroke:#111111;stroke-width:7.5"/>
  <rect width="52.934" height="13.992" x="295.34" y="201.73" style="fill:none;stroke:#111111;stroke-width:7.5"/>
 </g>
 <rect style="fill:none;stroke:#111111;stroke-width:7.5" width="144.161" height="78.308" x="35.44" y="266.28" rx="16.188" ry="16.658"/>
 <rect style="fill:none;stroke:#111111;stroke-width:7.5" width="144.161" height="78.308" x="204.4" y="266.28" rx="16.188" ry="16.658"/>
 <g transform="translate(-333.55932,216.00615)">
  <use width="100%" height="100%" x="0" y="0" mask="url(#mask1-7-0)" transform="translate(333.55904,-262.1818)" xlink:href="#surface9"/>
  <path d="m 544.31294,-84.595956 -14.38671,14.38671 14.38735,14.389992 -4.39063,4.390625 -14.38999,-14.387346 -14.38672,14.386724 -4.33985,-4.339851 14.38672,-14.386725 -14.38735,-14.38999 4.39063,-4.390625 14.38999,14.387345 14.38671,-14.38671 z m 0,0" style="stroke:#000000;stroke-width:1.87040067"/>
 </g>
</svg>
